X: 57
T: Hora "Vesenny Khorovod" (Springtime Circle-Dance)
R: hora
O:
Q: 1/4=50
B: German Goldenshteyn "Shpilt klezmorimlach klingen zoln di gesalach" New York 2003 v.3 #57
Z: 2013 John Chambers <jc:trillian.mit.edu>
M: 2/4
L: 1/16
K: Em
[|\
E3B,EB, E3B,EB, | E3B,EB, E3B,^C^D | B,2E4- E6- | E12 | G3FFE G3FFE |
G3FFE G3FFE | B,2^D4- D6- | D6- D3FG^G | ^G2A4- A6- | A12 | A3GGF A3GGF |
A3GGF A3GGF | {^A}B2E4- E6- | E6- E3^GA^A |: B12- | B12 | d3ccB d3ccB | d3ccB d3ccB |
{d}e2A4- A6- | A6 A2^G=G | F2B4- B6- | B12 | B2A2G2 F2G2A2 | B2A2G2 F2G2B,2 | B,2E4- E6- |[1 E6- E2^GA^A :|[2 E12 |]
